lib/brands/icons/flat-ui.svg

<svg xmlns="http://www.w3.org/2000/svg" fill="none" aria-hidden="true" viewBox="0 0 48 48"><g id="flat-ui-Icon"><g id="Group"><mask id="mask0_94_17508" width="36" height="28" x="6" y="10" maskUnits="userSpaceOnUse" style="mask-type:alpha"><path id="Subtract" fill="#57BBFB" fill-rule="evenodd" d="M32.6771 10.4505H15.3957C15.1585 10.4505 14.9308 10.5449 14.7633 10.7129L6 19.5005L23.975 37.5004L42 19.5005L33.3122 10.7157C33.1444 10.546 32.9158 10.4505 32.6771 10.4505ZM32.9894 17.2353C32.8725 17.8967 31.5329 19.2473 30.7994 19.4028C30.7636 19.4103 30.7598 19.5254 30.7951 19.5347C31.5003 19.7206 32.8362 21.0872 32.9859 21.7134C32.9945 21.7497 33.0521 21.7494 33.0624 21.7135C33.251 21.0554 34.6163 19.6766 35.2427 19.5347C35.2781 19.5268 35.2739 19.4102 35.2385 19.4028C34.6323 19.2755 33.2617 17.9102 33.0605 17.2346C33.0506 17.2016 32.9955 17.2012 32.9894 17.2353Z" clip-rule="evenodd"/></mask><g mask="url(#mask0_94_17508)"><path id="Subtract_2" fill="#57BBFB" fill-rule="evenodd" d="M32.6771 10.4505H15.3957C15.1585 10.4505 14.9308 10.5449 14.7633 10.7129L6 19.5005L23.975 37.5004L42 19.5005L33.3122 10.7157C33.1444 10.546 32.9158 10.4505 32.6771 10.4505ZM32.9894 17.2353C32.8725 17.8967 31.5329 19.2473 30.7994 19.4028C30.7636 19.4103 30.7598 19.5254 30.7951 19.5347C31.5003 19.7206 32.8362 21.0872 32.9859 21.7134C32.9945 21.7497 33.0521 21.7494 33.0624 21.7135C33.251 21.0554 34.6163 19.6766 35.2427 19.5347C35.2781 19.5268 35.2739 19.4102 35.2385 19.4028C34.6323 19.2755 33.2617 17.9102 33.0605 17.2346C33.0506 17.2016 32.9955 17.2012 32.9894 17.2353Z" clip-rule="evenodd"/><path id="Vector" fill="#48ACEC" d="M33.1624 10.5942C33.0189 10.5011 32.8508 10.45 32.6771 10.45H15.3957C15.1584 10.45 14.9308 10.5444 14.7632 10.7126L15.0499 11.075L19.4375 15.3875L28.55 15.35L33.1624 10.5942Z"/><path id="Vector_2" fill="#2B8FCF" d="M24.0564 37.4187L23.975 37.5001L6 19.5L6.15176 19.348H15.65L24.0564 36.9125V37.4187Z"/><path id="Vector_3" fill="#2D91D1" d="M18.0181 25.4444L19.5127 28.4754H28.5257L30.007 25.5134L23.9303 19.474L18.0181 25.4444Z"/><path id="Vector_4" fill="#7ACBFF" d="M33.0525 19.474H41.9781L32.9875 10.4563L28.4751 14.9491L33.0525 19.4738V19.474Z"/><path id="Vector_5" fill="#55B9F9" d="M28.4751 14.9491L23.9876 10.5134L19.4868 15.0257L23.9306 19.474L28.4751 14.9491Z"/><path id="Vector_6" fill="#3B9FDF" d="M23.9307 19.474H15.0503L18.0184 25.4452L23.9307 19.4746L30.0075 25.5142L33.0527 19.474H23.9307Z"/><path id="Vector_7" fill="#52B6F7" d="M15.0498 19.4739V19.474H23.9302L19.4866 15.0257L15.0498 19.4739Z"/><path id="Vector_8" fill="#8FD3FF" d="M28.4752 14.9491L23.9307 19.474H33.0526L33.0527 19.4739L28.4752 14.9491Z"/><path id="Vector_9" fill="#FF2690" d="M28.4753 14.9491L23.9878 10.5134L28.4753 14.9491Z"/><path id="Vector_10" fill="#41A5E5" d="M19.4868 15.0257L15.0157 10.5501L6.00635 19.474H15.0502L15.05 19.4739L19.4868 15.0257Z"/><path id="Vector_11" fill="#3CA0E0" d="M23.9874 37.55L28.5257 28.4754H19.5127L23.9874 37.55Z"/><path id="Vector_12" fill="#4EB2F2" d="M30.0072 25.5135L28.5259 28.4755H32.9875L30.0072 25.5135Z"/><path id="Vector_13" fill="#1A7EBE" d="M15.0166 28.4755H19.5127L18.0181 25.4444L15.0166 28.4755Z"/></g></g></g></svg>

<svg xmlns="http://www.w3.org/2000/svg" fill="none" aria-hidden="true" viewBox="0 0 48 48"><mask id="a" width="36" height="28" x="6" y="10" maskUnits="userSpaceOnUse" style="mask-type:alpha"><path fill="#57BBFB" fill-rule="evenodd" d="M32.677 10.45H15.396a.893.893 0 0 0-.633.263L6 19.5l17.975 18L42 19.5l-8.688-8.784a.893.893 0 0 0-.635-.265Zm.312 6.785c-.116.662-1.456 2.012-2.19 2.168-.035.007-.04.122-.004.132.705.186 2.041 1.552 2.19 2.178.01.037.067.036.077 0 .189-.658 1.554-2.036 2.18-2.178.036-.008.032-.125-.003-.132-.607-.127-1.977-1.493-2.178-2.168-.01-.033-.066-.034-.072 0Z" clip-rule="evenodd"/></mask><g mask="url(#a)"><path fill="#57BBFB" fill-rule="evenodd" d="M32.677 10.45H15.396a.893.893 0 0 0-.633.263L6 19.5l17.975 18L42 19.5l-8.688-8.784a.893.893 0 0 0-.635-.265Zm.312 6.785c-.116.662-1.456 2.012-2.19 2.168-.035.007-.04.122-.004.132.705.186 2.041 1.552 2.19 2.178.01.037.067.036.077 0 .189-.658 1.554-2.036 2.18-2.178.036-.008.032-.125-.003-.132-.607-.127-1.977-1.493-2.178-2.168-.01-.033-.066-.034-.072 0Z" clip-rule="evenodd"/><path fill="#48ACEC" d="M33.162 10.594a.892.892 0 0 0-.485-.144H15.396a.893.893 0 0 0-.633.263l.287.362 4.387 4.313 9.113-.038 4.612-4.756Z"/><path fill="#2B8FCF" d="m24.056 37.419-.081.081L6 19.5l.152-.152h9.498l8.406 17.565v.506Z"/><path fill="#2D91D1" d="m18.018 25.444 1.495 3.031h9.013l1.481-2.962-6.077-6.039-5.912 5.97Z"/><path fill="#7ACBFF" d="M33.053 19.474h8.925l-8.99-9.018-4.513 4.493 4.578 4.525Z"/><path fill="#55B9F9" d="m28.475 14.95-4.487-4.437-4.501 4.513 4.444 4.448 4.544-4.525Z"/><path fill="#3B9FDF" d="M23.93 19.474h-8.88l2.968 5.971 5.912-5.97 6.077 6.04 3.046-6.041H23.93Z"/><path fill="#52B6F7" d="M15.05 19.474h8.88l-4.443-4.448-4.437 4.448Z"/><path fill="#8FD3FF" d="m28.475 14.95-4.545 4.524h9.122l-4.577-4.525Z"/><path fill="#FF2690" d="m28.475 14.95-4.488-4.437 4.488 4.436Z"/><path fill="#41A5E5" d="m19.487 15.026-4.471-4.476-9.01 8.924h9.044l4.437-4.448Z"/><path fill="#3CA0E0" d="m23.988 37.55 4.538-9.075h-9.013l4.474 9.075Z"/><path fill="#4EB2F2" d="m30.007 25.514-1.481 2.962h4.461l-2.98-2.962Z"/><path fill="#1A7EBE" d="M15.017 28.476h4.496l-1.495-3.032-3.001 3.032Z"/></g></svg>
